; generated by Slic3r 1.1.7 on 2015-04-21 at 11:38:40

; perimeters extrusion width = 0.50mm
; infill extrusion width = 1.98mm
; solid infill extrusion width = 0.85mm
; top infill extrusion width = 0.85mm

G21 ; set units to millimeters
M107
M190 S75 ; wait for bed temperature to be reached
M104 S255 ; set temperature
G28

M109 S255 ; wait for temperature to be reached
G90 ; use absolute coordinates
G92 E0
M82 ; use absolute distances for extrusion
G1 F1800.000 E-1.00000
G92 E0
G1 Z0.250 F7800.000
G1 X84.155 Y84.697 F7800.000
G1 E1.00000 F1800.000
G1 X85.634 Y83.301 E1.03596 F1080.000
G1 X86.975 Y82.384 E1.06470
G1 X89.659 Y80.550 E1.12219
G1 X91.497 Y79.679 E1.15815
G1 X96.176 Y78.306 E1.24438
G1 X98.193 Y78.046 E1.28034
G1 X99.817 Y78.093 E1.30908
G1 X103.067 Y78.186 E1.36656 F1080.000
G1 X105.065 Y78.562 E1.40253
G1 X109.657 Y80.202 E1.48875
G1 X111.442 Y81.177 E1.52472
G1 X115.303 Y84.155 E1.61094
G1 X116.699 Y85.634 E1.64690
G1 X119.450 Y89.659 E1.73313
G1 X120.321 Y91.497 E1.76909
G1 X121.694 Y96.176 E1.85532
G1 X121.954 Y98.193 E1.89128
G1 X121.814 Y103.067 E1.97751
G1 X121.438 Y105.065 E2.01347
G1 X119.798 Y109.657 E2.09969
G1 X118.823 Y111.442 E2.13566
G1 X115.845 Y115.303 E2.22188
G1 X114.366 Y116.699 E2.25785
G1 X110.341 Y119.450 E2.34407
G1 X108.503 Y120.321 E2.38003
G1 X103.824 Y121.694 E2.46626
G1 X101.807 Y121.954 E2.50222
G1 X96.933 Y121.814 E2.58845
G1 X94.935 Y121.438 E2.62441
G1 X90.343 Y119.798 E2.71064
G1 X88.558 Y118.823 E2.74660
G1 X84.697 Y115.845 E2.83282
G1 X83.301 Y114.366 E2.86879
G1 X80.550 Y110.341 E2.95501
G1 X79.679 Y108.503 E2.99098
G1 X78.306 Y103.824 E3.07720
G1 X78.046 Y101.807 E3.11316
G1 X78.186 Y96.933 E3.19939
G1 X78.562 Y94.935 E3.23535
G1 X80.202 Y90.343 E3.32158
G1 X81.177 Y88.558 E3.35754
G1 X84.109 Y84.757 E3.44244
G1 F1800.000 E2.44244
G92 E0
G1 X107.412 Y107.412 F7800.000
G1 E1.00000 F1800.000
G1 X104.011 Y109.685 E1.07233 F540.000
G1 X100.000 Y110.483 E1.14466
G1 X95.989 Y109.685 E1.21698
G1 X94.551 Y108.724 E1.24756
G1 X92.588 Y107.412 E1.28931
G1 X90.315 Y104.011 E1.36164
G1 X89.517 Y100.000 E1.43397
G1 X90.315 Y95.989 E1.50630
G1 X92.588 Y92.588 E1.57863
G1 X95.989 Y90.315 E1.65095
G1 X100.000 Y89.517 E1.72328
G1 X101.535 Y89.823 E1.75096
G1 X104.011 Y90.315 E1.79561 F540.000
G1 X107.412 Y92.588 E1.86794
G1 X109.685 Y95.989 E1.94027
G1 X110.483 Y100.000 E2.01260
G1 X109.685 Y104.011 E2.08492
G1 X107.454 Y107.350 E2.15593
G1 X107.052 Y107.052 F7800.000
G1 X103.816 Y109.214 E2.22474 F540.000
G1 X100.000 Y109.973 E2.29355
G1 X96.184 Y109.214 E2.36236
G1 X94.829 Y108.308 E2.39118
G1 X92.948 Y107.052 E2.43117
G1 X90.786 Y103.816 E2.49998
G1 X90.027 Y100.000 E2.56879
G1 X90.786 Y96.184 E2.63760
G1 X92.948 Y92.948 E2.70641
G1 X96.184 Y90.786 E2.77522
G1 X97.782 Y90.469 E2.80404
G1 X100.000 Y90.027 E2.84403 F540.000
G1 X103.816 Y90.786 E2.91285
G1 X107.052 Y92.948 E2.98166
G1 X109.214 Y96.184 E3.05047
G1 X109.973 Y100.000 E3.11928
G1 X109.214 Y103.816 E3.18809
G1 X107.093 Y106.989 E3.25557
G1 X106.691 Y106.691 F7800.000
G1 X103.621 Y108.743 E3.32087 F540.000
G1 X100.000 Y109.463 E3.38616
G1 X96.379 Y108.743 E3.45145
G1 X95.106 Y107.893 E3.47851
G1 X93.309 Y106.691 E3.51675
G1 X91.257 Y103.621 E3.58204
G1 X90.537 Y100.000 E3.64733
G1 X91.257 Y96.379 E3.71263
G1 X93.309 Y93.309 E3.77792
G1 X96.379 Y91.257 E3.84321
G1 X100.000 Y90.537 E3.90851
G1 X101.340 Y90.804 E3.93266
G1 X103.621 Y91.257 E3.97380 F540.000
G1 X106.691 Y93.309 E4.03909
G1 X108.743 Y96.379 E4.10439
G1 X109.463 Y100.000 E4.16968
G1 X108.743 Y103.621 E4.23497
G1 X106.733 Y106.629 E4.29894
G1 X106.331 Y106.331 F7800.000
G1 X103.426 Y108.272 E4.36071 F378.000
G1 X100.000 Y108.953 E4.42249
G1 X96.574 Y108.272 E4.48427
G1 X95.384 Y107.477 E4.50957
G1 X93.669 Y106.331 E4.54604
G1 X91.728 Y103.426 E4.60782
G1 X91.047 Y100.000 E4.66959
G1 X91.728 Y96.574 E4.73137
G1 X93.669 Y93.669 E4.79314
G1 X96.574 Y91.728 E4.85492
G1 X97.977 Y91.449 E4.88022
G1 X100.000 Y91.047 E4.91670 F378.000
G1 X103.426 Y91.728 E4.97847
G1 X106.331 Y93.669 E5.04025
G1 X108.272 Y96.574 E5.10202
G1 X108.953 Y100.000 E5.16380
G1 X108.272 Y103.426 E5.22557
G1 X106.372 Y106.268 E5.28602
G1 F1800.000 E4.28602
G92 E0
G1 X97.797 Y90.983 F7800.000
G1 X110.102 Y109.240 F7800.000
G1 E1.00000 F1800.000
G1 X109.482 Y110.044 E1.01795 F540.000
G1 X105.914 Y112.483 E1.09437
G1 X101.768 Y113.699 E1.17080
G1 X97.448 Y113.575 E1.24722
G1 X93.378 Y112.122 E1.32364
G1 X89.956 Y109.482 E1.40006
G1 X87.517 Y105.914 E1.47649
G1 X86.301 Y101.768 E1.55291
G1 X86.425 Y97.448 E1.62933
G1 X87.878 Y93.378 E1.70575
G1 X90.518 Y89.956 E1.78218
G1 X94.086 Y87.517 E1.85860
G1 X95.379 Y87.138 E1.88244
G1 X98.232 Y86.301 E1.93502 F540.000
G1 X102.552 Y86.425 E2.01144
G1 X106.622 Y87.878 E2.08787
G1 X110.044 Y90.518 E2.16429
G1 X112.483 Y94.086 E2.24071
G1 X113.699 Y98.232 E2.31713
G1 X113.575 Y102.552 E2.39356
G1 X112.122 Y106.622 E2.46998
G1 X110.148 Y109.181 E2.52712
G1 X110.498 Y109.546 F7800.000
G1 X109.830 Y110.412 E2.54647 F540.000
G1 X106.131 Y112.940 E2.62570
G1 X101.832 Y114.201 E2.70492
G1 X97.354 Y114.072 E2.78414
G1 X93.135 Y112.566 E2.86337
G1 X89.588 Y109.830 E2.94259
G1 X87.060 Y106.131 E3.02182
G1 X85.799 Y101.832 E3.10104
G1 X85.928 Y97.354 E3.18026
G1 X87.434 Y93.135 E3.25949
G1 X90.170 Y89.588 E3.33871
G1 X93.869 Y87.060 E3.41793
G1 X98.168 Y85.799 E3.49716
G1 X99.389 Y85.834 E3.51875
G1 X102.646 Y85.928 E3.57638 F540.000
G1 X106.865 Y87.434 E3.65560
G1 X110.412 Y90.170 E3.73483
G1 X112.940 Y93.869 E3.81405
G1 X114.201 Y98.168 E3.89327
G1 X114.072 Y102.646 E3.97250
G1 X112.566 Y106.865 E4.05172
G1 X110.544 Y109.486 E4.11026
G1 X110.894 Y109.851 F7800.000
G1 X110.177 Y110.780 E4.13102 F540.000
G1 X106.348 Y113.397 E4.21304
G1 X101.897 Y114.703 E4.29506
G1 X97.261 Y114.570 E4.37709
G1 X92.892 Y113.010 E4.45911
G1 X89.220 Y110.177 E4.54114
G1 X86.603 Y106.348 E4.62316
G1 X85.297 Y101.897 E4.70519
G1 X85.430 Y97.261 E4.78721
G1 X86.990 Y92.892 E4.86923
G1 X89.823 Y89.220 E4.95126
G1 X93.652 Y86.603 E5.03328
G1 X95.098 Y86.178 E5.05992
G1 X98.103 Y85.297 E5.11531 F540.000
G1 X102.739 Y85.430 E5.19733
G1 X107.108 Y86.990 E5.27936
G1 X110.780 Y89.823 E5.36138
G1 X113.397 Y93.652 E5.44340
G1 X114.703 Y98.103 E5.52543
G1 X114.570 Y102.739 E5.60745
G1 X113.010 Y107.108 E5.68948
G1 X110.940 Y109.792 E5.74942
G1 X111.290 Y110.156 F7800.000
G1 X110.525 Y111.148 E5.77157 F378.000
G1 X106.565 Y113.855 E5.85640
G1 X101.962 Y115.205 E5.94122
G1 X97.167 Y115.067 E6.02605
G1 X92.650 Y113.455 E6.11087
G1 X88.852 Y110.525 E6.19570
G1 X86.145 Y106.565 E6.28052
G1 X84.795 Y101.962 E6.36535
G1 X84.933 Y97.167 E6.45017
G1 X86.545 Y92.650 E6.53500
G1 X89.475 Y88.852 E6.61982
G1 X93.435 Y86.145 E6.70465
G1 X98.038 Y84.795 E6.78948
G1 X99.623 Y84.840 E6.81752
G1 X102.833 Y84.933 E6.87430 F378.000
G1 X107.350 Y86.545 E6.95913
G1 X111.148 Y89.475 E7.04395
G1 X113.855 Y93.435 E7.12878
G1 X115.205 Y98.038 E7.21360
G1 X115.067 Y102.833 E7.29843
G1 X113.455 Y107.350 E7.38325
G1 X111.336 Y110.097 E7.44460
G1 F1800.000 E6.44460
G92 E0
G1 X100.091 Y85.016 F7800.000
G1 X103.135 Y86.997 F7800.000
G1 E1.00000 F1800.000
G1 X112.915 Y96.777 E1.24459 F1080.000
G1 X113.213 Y97.792 E1.26330
G1 X102.178 Y86.757 E1.53927
G1 X101.439 Y86.736 E1.55234
G1 X105.807 Y91.103 E1.66157
G1 X103.938 Y89.952 F7800.000
G1 X100.701 Y86.714 E1.74253 F1080.000
G1 X99.962 Y86.693 E1.75559
G1 X103.043 Y89.774 E1.83263
G1 X102.147 Y89.595 E1.84877
G1 X99.224 Y86.672 E1.92189
G1 X98.485 Y86.651 E1.93495
G1 X101.252 Y89.417 E2.00414
G1 X100.357 Y89.239 E2.02029
G1 X97.879 Y86.761 E2.08226
G1 X97.324 Y86.924 E2.09248
G1 X99.640 Y89.240 E2.15039
G1 X99.042 Y89.359 E2.16118
G1 X96.770 Y87.087 E2.21800
G1 X96.215 Y87.250 E2.22822
G1 X98.444 Y89.478 E2.28395
G1 X97.845 Y89.597 E2.29473
G1 X95.661 Y87.412 E2.34937
G1 X95.106 Y87.575 E2.35959
G1 X97.247 Y89.716 E2.41313
G1 X96.649 Y89.835 E2.42392
G1 X94.552 Y87.738 E2.47637
G1 X94.052 Y87.955 E2.48600
G1 X96.051 Y89.954 E2.53599
G1 X95.566 Y90.186 E2.54549
G1 X93.626 Y88.247 E2.59400
G1 X93.200 Y88.538 E2.60313
G1 X95.136 Y90.473 E2.65154
G1 X94.706 Y90.761 E2.66068
G1 X92.774 Y88.829 E2.70900
G1 X92.348 Y89.120 E2.71812
G1 X94.276 Y91.048 E2.76634
G1 X93.846 Y91.335 E2.77548
G1 X91.922 Y89.411 E2.82360
G1 X91.496 Y89.703 E2.83272
G1 X93.416 Y91.623 E2.88074
G1 X92.986 Y91.910 E2.88989
G1 X91.070 Y89.994 E2.93781
G1 X90.676 Y90.317 E2.94682
G1 X92.556 Y92.197 E2.99384
G1 X92.197 Y92.556 E3.00281
G1 X90.361 Y90.720 E3.04873
G1 X90.049 Y91.125 E3.05777
G1 X91.910 Y92.986 E3.10431
G1 X91.623 Y93.416 E3.11346
G1 X89.736 Y91.530 E3.16063
G1 X89.424 Y91.935 E3.16967
G1 X91.335 Y93.846 E3.21747
G1 X91.048 Y94.276 E3.22661
G1 X89.112 Y92.339 E3.27504
G1 X88.799 Y92.744 E3.28408
G1 X90.761 Y94.706 E3.33313
G1 X90.473 Y95.136 E3.34228
G1 X88.487 Y93.149 E3.39195
G1 X88.178 Y93.557 E3.40101
G1 X90.186 Y95.566 E3.45123
G1 X89.954 Y96.051 E3.46074
G1 X87.989 Y94.086 E3.50988
G1 X87.800 Y94.614 E3.51981
G1 X89.835 Y96.649 E3.57069
G1 X89.716 Y97.247 E3.58147
G1 X87.612 Y95.143 E3.63410
G1 X87.423 Y95.671 E3.64402
G1 X89.597 Y97.845 E3.69839
G1 X89.478 Y98.444 E3.70918
G1 X87.234 Y96.200 E3.76529
G1 X87.046 Y96.729 E3.77522
G1 X89.359 Y99.042 E3.83307
G1 X89.240 Y99.640 E3.84386
G1 X86.857 Y97.257 E3.90346
G1 X86.755 Y97.873 E3.91449
G1 X89.239 Y100.357 E3.97661
G1 X89.417 Y101.252 E3.99275
G1 X86.735 Y98.570 E4.05983
G1 X86.715 Y99.267 E4.07216
G1 X89.595 Y102.147 E4.14419
G1 X89.774 Y103.043 E4.16033
G1 X86.695 Y99.965 E4.23732
G1 X86.675 Y100.662 E4.24965
G1 X89.952 Y103.938 E4.33159
G1 X91.103 Y105.807 F7800.000
G1 X86.655 Y101.359 E4.44284 F1080.000
G1 X86.787 Y102.208 E4.45803
G1 X97.822 Y113.243 E4.73401
G1 X98.561 Y113.264 E4.74707
G1 X94.193 Y108.897 E4.85630
G1 X96.062 Y110.048 F7800.000
G1 X99.299 Y113.286 E4.93726 F1080.000
G1 X100.038 Y113.307 E4.95033
G1 X96.957 Y110.226 E5.02737
G1 X97.853 Y110.405 E5.04351
G1 X100.776 Y113.328 E5.11662
G1 X101.515 Y113.349 E5.12969
G1 X98.748 Y110.583 E5.19888
G1 X99.643 Y110.761 E5.21502
G1 X102.121 Y113.239 E5.27699
G1 X102.676 Y113.076 E5.28721
G1 X100.360 Y110.760 E5.34513
G1 X100.958 Y110.641 E5.35591
G1 X103.230 Y112.913 E5.41273
G1 X103.785 Y112.750 E5.42295
G1 X101.556 Y110.522 E5.47868
G1 X102.155 Y110.403 E5.48947
G1 X104.339 Y112.588 E5.54410
G1 X104.894 Y112.425 E5.55432
G1 X102.753 Y110.284 E5.60787
G1 X103.351 Y110.165 E5.61865
G1 X105.448 Y112.262 E5.67110
G1 X105.948 Y112.045 E5.68074
G1 X103.949 Y110.046 E5.73072
G1 X104.434 Y109.814 E5.74023
G1 X106.374 Y111.754 E5.78874
G1 X106.800 Y111.462 E5.79786
G1 X104.864 Y109.527 E5.84627
G1 X105.294 Y109.239 E5.85542
G1 X107.226 Y111.171 E5.90373
G1 X107.652 Y110.880 E5.91286
G1 X105.724 Y108.952 E5.96107
G1 X106.154 Y108.665 E5.97022
G1 X108.078 Y110.589 E6.01833
G1 X108.504 Y110.297 E6.02746
G1 X106.584 Y108.377 E6.07548
G1 X107.014 Y108.090 E6.08462
G1 X108.930 Y110.006 E6.13254
G1 X109.324 Y109.683 E6.14156
G1 X107.444 Y107.803 E6.18858
G1 X107.803 Y107.444 E6.19755
G1 X109.639 Y109.280 E6.24346
G1 X109.951 Y108.875 E6.25251
G1 X108.090 Y107.014 E6.29905
G1 X108.377 Y106.584 E6.30819
G1 X110.264 Y108.470 E6.35536
G1 X110.576 Y108.066 E6.36441
G1 X108.665 Y106.154 E6.41220
G1 X108.952 Y105.724 E6.42135
G1 X110.888 Y107.661 E6.46977
G1 X111.201 Y107.256 E6.47882
G1 X109.239 Y105.294 E6.52787
G1 X109.527 Y104.864 E6.53701
G1 X111.513 Y106.851 E6.58669
G1 X111.822 Y106.443 E6.59574
G1 X109.814 Y104.434 E6.64597
G1 X110.046 Y103.949 E6.65548
G1 X112.011 Y105.914 E6.70462
G1 X112.200 Y105.386 E6.71454
G1 X110.165 Y103.351 E6.76542
G1 X110.284 Y102.753 E6.77621
G1 X112.388 Y104.857 E6.82883
G1 X112.577 Y104.329 E6.83876
G1 X110.403 Y102.155 E6.89313
G1 X110.522 Y101.556 E6.90391
G1 X112.766 Y103.800 E6.96003
G1 X112.954 Y103.272 E6.96995
G1 X110.641 Y100.958 E7.02780
G1 X110.760 Y100.360 E7.03859
G1 X113.143 Y102.743 E7.09819
G1 X113.245 Y102.127 E7.10923
G1 X110.761 Y99.643 E7.17135
G1 X110.583 Y98.748 E7.18749
G1 X113.265 Y101.430 E7.25456
G1 X113.285 Y100.733 E7.26690
G1 X110.405 Y97.853 E7.33892
G1 X110.226 Y96.957 E7.35507
G1 X113.305 Y100.035 E7.43205
G1 X113.325 Y99.338 E7.44439
G1 X110.048 Y96.062 E7.52633
G1 X108.897 Y94.193 F7800.000
G1 X113.345 Y98.641 E7.63757 F1080.000
G1 X111.403 Y93.112 F7800.000
G1 X106.528 Y88.238 E7.75946 F1080.000
G1 X105.366 Y87.793 F7800.000
G1 X112.320 Y94.747 E7.93336 F1080.000
G1 X112.617 Y95.762 E7.95207
G1 X104.251 Y87.395 E8.16131
G1 X109.667 Y90.659 F7800.000
G1 X109.854 Y90.846 E8.16599 F1080.000
G1 F1800.000 E7.16599
G92 E0
G1 X96.865 Y113.003 F7800.000
G1 E1.00000 F1800.000
G1 X87.085 Y103.223 E1.24459 F1080.000
G1 X87.383 Y104.238 E1.26330
G1 X95.749 Y112.605 E1.47254
G1 X94.634 Y112.207 F7800.000
G1 X87.680 Y105.253 E1.64643 F1080.000
G1 X88.598 Y106.888 F7800.000
G1 X93.472 Y111.762 E1.76833 F1080.000
G1 X90.333 Y109.341 F7800.000
G1 X90.146 Y109.154 E1.77301 F1080.000
M106 S255
M104 S250 ; set temperature
M140 S70 ; set bed temperature
G1 F1800.000 E0.77301
G92 E0
G1 Z0.350 F7800.000
G1 X107.123 Y107.124 F7800.000
G1 E1.00000 F1800.000
G1 X103.855 Y109.307 E1.02780 F1630.640
G1 X100.000 Y110.074 E1.05561
G1 X96.145 Y109.307 E1.08341
G1 X92.876 Y107.123 E1.11122
G1 X90.693 Y103.855 E1.13902
G1 X89.926 Y100.000 E1.16683
G1 X90.693 Y96.145 E1.19463
G1 X92.877 Y92.876 E1.22244
G1 X96.145 Y90.693 E1.25024
G1 X100.000 Y89.926 E1.27804
G1 X100.372 Y90.000 E1.28073
G1 X103.855 Y90.693 E1.30585 F1630.640
G1 X107.124 Y92.877 E1.33365
G1 X109.307 Y96.145 E1.36146
G1 X110.074 Y100.000 E1.38926
G1 X109.307 Y103.855 E1.41707
G1 X107.165 Y107.061 E1.44434
G1 X106.763 Y106.763 F7800.000
G1 X103.660 Y108.836 E1.47074 F1630.640
G1 X100.000 Y109.564 E1.49714
G1 X96.340 Y108.836 E1.52353
G1 X93.237 Y106.763 E1.54993
G1 X91.164 Y103.660 E1.57633
G1 X90.436 Y100.000 E1.60273
G1 X91.164 Y96.340 E1.62912
G1 X93.237 Y93.237 E1.65552
G1 X96.340 Y91.164 E1.68192
G1 X96.614 Y91.109 E1.68390
G1 X100.000 Y90.436 E1.70832 F1630.640
G1 X103.660 Y91.164 E1.73471
G1 X106.763 Y93.237 E1.76111
G1 X108.836 Y96.340 E1.78751
G1 X109.564 Y100.000 E1.81391
G1 X108.836 Y103.660 E1.84030
G1 X106.805 Y106.701 E1.86617
G1 X106.403 Y106.403 F7800.000
G1 X103.465 Y108.365 E1.89116 F1630.640
G1 X100.000 Y109.055 E1.91615
G1 X96.535 Y108.365 E1.94114
G1 X93.597 Y106.403 E1.96613
G1 X91.635 Y103.465 E1.99112
G1 X90.945 Y100.000 E2.01611
G1 X91.635 Y96.535 E2.04110
G1 X93.597 Y93.597 E2.06610
G1 X96.535 Y91.635 E2.09109
G1 X100.000 Y90.945 E2.11608
G1 X100.177 Y90.981 E2.11735
G1 X103.465 Y91.635 E2.14107 F1630.640
G1 X106.403 Y93.597 E2.16606
G1 X108.365 Y96.535 E2.19105
G1 X109.055 Y100.000 E2.21604
G1 X108.365 Y103.465 E2.24103
G1 X106.444 Y106.340 E2.26549
G1 X106.042 Y106.042 F7800.000
G1 X103.270 Y107.894 E2.28907 F1141.448
G1 X100.000 Y108.545 E2.31266
G1 X96.730 Y107.894 E2.33624
G1 X93.958 Y106.042 E2.35982
G1 X92.106 Y103.270 E2.38341
G1 X91.455 Y100.000 E2.40699
G1 X92.106 Y96.730 E2.43057
G1 X93.958 Y93.958 E2.45416
G1 X96.730 Y92.106 E2.47774
G1 X96.810 Y92.090 E2.47831
G1 X100.000 Y91.455 E2.50132 F1141.448
G1 X103.270 Y92.106 E2.52491
G1 X106.042 Y93.958 E2.54849
G1 X107.894 Y96.730 E2.57207
G1 X108.545 Y100.000 E2.59566
G1 X107.894 Y103.270 E2.61924
G1 X106.084 Y105.980 E2.64229
G1 F1800.000 E1.64229
G92 E0
G1 X96.619 Y91.628 F7800.000
G1 X110.354 Y109.368 F7800.000
G1 E1.00000 F1800.000
G1 X109.675 Y110.248 E1.00786 F1630.640
G1 X106.035 Y112.736 E1.03905
G1 X101.804 Y113.978 E1.07024
G1 X97.396 Y113.851 E1.10143
G1 X93.243 Y112.368 E1.13262
G1 X89.752 Y109.675 E1.16381
G1 X87.264 Y106.035 E1.19500
G1 X86.022 Y101.804 E1.22619
G1 X86.149 Y97.396 E1.25738
G1 X87.632 Y93.243 E1.28858
G1 X90.325 Y89.752 E1.31977
G1 X93.965 Y87.264 E1.35096
G1 X97.390 Y86.259 E1.37620
G1 X98.196 Y86.022 E1.38215 F1630.640
G1 X102.604 Y86.149 E1.41334
G1 X106.757 Y87.632 E1.44453
G1 X110.248 Y90.325 E1.47572
G1 X112.736 Y93.965 E1.50691
G1 X113.978 Y98.196 E1.53810
G1 X113.851 Y102.604 E1.56929
G1 X112.368 Y106.757 E1.60048
G1 X110.400 Y109.309 E1.62328
G1 X110.750 Y109.674 F7800.000
G1 X110.023 Y110.616 E1.63170 F1630.640
G1 X106.251 Y113.194 E1.66401
